public/themes/Yaru/status/skills.svg

<svg xmlns="http://www.w3.org/2000/svg" xmlns:osb="http://www.openswatchbook.org/uri/2009/osb" xmlns:svg="http://www.w3.org/2000/svg" width="16" height="16" version="1.1"><rect id="backgroundrect" width="100%" height="100%" x="0" y="0" fill="none" stroke="none"/><metadata id="metadata20854"/><defs id="defs7386"><linearGradient id="linearGradient5606" osb:paint="solid"><stop id="stop5608" offset="0" style="stop-color:#000;stop-opacity:1"/></linearGradient><linearGradient id="linearGradient4526" osb:paint="solid"><stop id="stop4528" offset="0" style="stop-color:#fff;stop-opacity:1"/></linearGradient><linearGradient id="linearGradient3600-4" osb:paint="gradient"><stop id="stop3602-7" offset="0" style="stop-color:#f4f4f4;stop-opacity:1"/><stop id="stop3604-6" offset="1" style="stop-color:#dbdbdb;stop-opacity:1"/></linearGradient></defs><g class="currentLayer"><title>Layer 1</title><path style="opacity:1;vector-effect:none;stroke:none;stroke-width:1;stroke-linecap:round;stroke-linejoin:round;stroke-miterlimit:4;stroke-dasharray:none;stroke-dashoffset:0;stroke-opacity:1" id="rect6717" fill="#fff" fill-opacity="1" d="M 3.99215,0 C 3.94195,0 3.89645,0.015 3.84762,0.0195 4.06253,0.0165 4.20489,0.0033 4.4941,0 Z M 4.50582,0 C 5.76402,0.0145 6.18471,-0.0306 6.93746,0.38477 7.31383,0.59243 7.61069,0.94415 7.77535,1.38281 7.94006,1.82148 7.99996,2.34239 7.99996,3 v 1 h 3 V 3.75391 c 0,-1.10799 0.446,-1.75391 1,-1.75391 0.554,0 1,0.64592 1,1.75391 V 4 c 1.108,0 2,-1.392 2,-2.5 0,-1.108 -0.892,-1.5 -2,-1.5 z" class="selected"/><path id="path1817-9-6-6" fill="#fff" fill-opacity="1" d="M 4.4941,0 C 3.2359,0.0145 2.81521,-0.0306 2.06246,0.38477 1.68609,0.59243 1.38923,0.94415 1.22457,1.38281 1.0599,1.82148 0.99996,2.34239 0.99996,3 v 10 c 0,0.65761 0.0599,1.17858 0.22461,1.61719 0.16468,0.43861 0.46153,0.78852 0.83789,0.99609 C 2.81518,16.02841 2.736,15.98493 3.9941,16 h 0.002 0.50391 0.50391 0.002 C 6.26402,15.9849 6.18484,16.0284 6.93756,15.61328 7.31392,15.40571 7.61077,15.0558 7.77545,14.61719 7.93996,14.17858 7.99996,13.65761 7.99996,13 V 3 C 7.99996,2.34239 7.94006,1.82148 7.77535,1.38281 7.61069,0.94415 7.31383,0.59243 6.93746,0.38477 6.18471,-0.0306 5.76402,0.0145 4.50582,0 h -0.004 -0.002 -0.002 z m 0.006,1 C 5.75863,1.0147 6.08922,1.0598 6.45518,1.26172 6.63859,1.36291 6.74234,1.47447 6.83994,1.73438 6.93722,1.99425 6.99996,2.40761 6.99996,3 v 10 c 0,0.59239 -0.0628,1.0058 -0.16016,1.26562 -0.0975,0.25982 -0.20134,0.3715 -0.38476,0.47266 C 6.08906,14.9401 6.25859,14.9848 4.99996,15 h -0.006 -0.494 -0.49414 -0.0059 C 2.74133,14.9848 2.91086,14.9401 2.54488,14.73828 2.36146,14.63712 2.25766,14.52543 2.16012,14.26562 2.06274,14.0058 1.99996,13.59239 1.99996,13 V 3 c 0,-0.59239 0.0626,-1.00576 0.16016,-1.26562 C 2.25772,1.47447 2.36147,1.36291 2.54488,1.26172 2.91084,1.0598 3.24143,1.0147 4.49996,1 Z m 0,1 a 1.5,1.5 0 0 0 -1.5,1.5 1.5,1.5 0 0 0 1.5,1.5 1.5,1.5 0 0 0 1.5,-1.5 1.5,1.5 0 0 0 -1.5,-1.5 z m 0,1 a 0.5,0.5 0 0 1 0.5,0.5 0.5,0.5 0 0 1 -0.5,0.5 0.5,0.5 0 0 1 -0.5,-0.5 0.5,0.5 0 0 1 0.5,-0.5 z" class="selected" style="color:#000;font:sans-serif;font-feature-settings:normal;text-indent:0;text-align:start;text-decoration:none solid #000;letter-spacing:normal;word-spacing:normal;text-transform:none;writing-mode:lr-tb;direction:ltr;text-orientation:mixed;dominant-baseline:auto;baseline-shift:baseline;text-anchor:start;white-space:normal;clip-rule:nonzero;display:inline;overflow:visible;visibility:visible;opacity:1;isolation:auto;mix-blend-mode:normal;color-interpolation:srgb;color-interpolation-filters:linearrgb;vector-effect:none;fill-rule:nonzero;stroke:none;stroke-width:1;stroke-linecap:butt;stroke-linejoin:miter;stroke-miterlimit:4;stroke-dasharray:none;stroke-dashoffset:0;stroke-opacity:1;marker:none;color-rendering:auto;image-rendering:auto;shape-rendering:auto;text-rendering:auto"/><path style="opacity:1;vector-effect:none;stroke:none;stroke-width:1;stroke-linecap:round;stroke-linejoin:round;stroke-miterlimit:4;stroke-dasharray:none;stroke-dashoffset:0;stroke-opacity:1" id="rect6767" fill="#fff" fill-opacity="1" d="M 8 5 L 8 9 C 9 9.5 11.10545 11.35059 14 12 C 13.08695 8.50878 10.5 6.5 8 5 z M 10.5 8 C 10.77614 8 11.19653 8.47678 11.375 8.6875 C 12.63024 10.92878 10.8237 9.22427 10 8.5 C 10 8.22386 10.22386 8 10.5 8 z" class="selected"/></g></svg>

<svg xmlns="http://www.w3.org/2000/svg" width="16" height="16"><rect width="100%" height="100%" fill="none"/><g class="currentLayer"><title>Layer 1</title><path fill="#fff" d="M3.992 0c-.05 0-.096.015-.144.02.215-.003.357-.017.646-.02Zm.514 0c1.258.015 1.679-.03 2.431.385.377.207.674.56.838.998C7.94 1.82 8 2.343 8 3v1h3v-.246C11 2.646 11.446 2 12 2s1 .646 1 1.754V4c1.108 0 2-1.392 2-2.5S14.108 0 13 0z" class="selected" style="opacity:1;vector-effect:none;stroke:none;stroke-width:1;stroke-linecap:round;stroke-linejoin:round;stroke-miterlimit:4;stroke-dasharray:none;stroke-dashoffset:0;stroke-opacity:1"/><path fill="#fff" d="M4.494 0C3.236.015 2.815-.03 2.062.385a1.88 1.88 0 0 0-.837.998C1.06 1.82 1 2.343 1 3v10c0 .658.06 1.179.225 1.617.164.439.461.789.837.996.753.415.674.372 1.932.387h1.012c1.258-.015 1.179.028 1.932-.387.376-.207.673-.557.837-.996C7.94 14.18 8 13.657 8 13V3c0-.658-.06-1.179-.225-1.617a1.88 1.88 0 0 0-.838-.998C6.185-.031 5.764.015 4.506 0h-.008zM4.5 1c1.259.015 1.59.06 1.955.262.184.1.287.212.385.472.097.26.16.674.16 1.266v10c0 .592-.063 1.006-.16 1.266-.098.26-.202.371-.385.472-.366.202-.196.247-1.455.262H4c-1.259-.015-1.09-.06-1.455-.262-.184-.1-.287-.213-.385-.472C2.063 14.006 2 13.592 2 13V3c0-.592.063-1.006.16-1.266.098-.26.201-.371.385-.472C2.91 1.06 3.24 1.015 4.5 1Zm0 1A1.5 1.5 0 0 0 3 3.5 1.5 1.5 0 0 0 4.5 5 1.5 1.5 0 0 0 6 3.5 1.5 1.5 0 0 0 4.5 2m0 1a.5.5 0 0 1 .5.5.5.5 0 0 1-.5.5.5.5 0 0 1-.5-.5.5.5 0 0 1 .5-.5" class="selected" style="color:#000;font:sans-serif;font-feature-settings:normal;text-indent:0;text-align:start;text-decoration:none solid #000;letter-spacing:normal;word-spacing:normal;text-transform:none;writing-mode:lr-tb;direction:ltr;text-orientation:mixed;dominant-baseline:auto;baseline-shift:baseline;text-anchor:start;white-space:normal;clip-rule:nonzero;display:inline;overflow:visible;visibility:visible;opacity:1;isolation:auto;mix-blend-mode:normal;color-interpolation:srgb;color-interpolation-filters:linearrgb;vector-effect:none;fill-rule:nonzero;stroke:none;stroke-width:1;stroke-linecap:butt;stroke-linejoin:miter;stroke-miterlimit:4;stroke-dasharray:none;stroke-dashoffset:0;stroke-opacity:1;marker:none;color-rendering:auto;image-rendering:auto;shape-rendering:auto;text-rendering:auto"/><path fill="#fff" d="M8 5v4c1 .5 3.105 2.35 6 3-.913-3.491-3.5-5.5-6-7m2.5 3c.276 0 .697.477.875.688 1.255 2.24-.551.536-1.375-.188a.5.5 0 0 1 .5-.5" class="selected" style="opacity:1;vector-effect:none;stroke:none;stroke-width:1;stroke-linecap:round;stroke-linejoin:round;stroke-miterlimit:4;stroke-dasharray:none;stroke-dashoffset:0;stroke-opacity:1"/></g></svg>
